X:351
T:3rd. Degree, The
M:6/8
C:© Paul Gitlitz 2013
N:   It's warmed up to 3 degrees yipee!
K:G
E|"F"A2A Acd|"Dm"edc "Am"AGE|"F"A2A Acd|"Dm"ede "G"g2a|!
"Am"AEA Acd|edc AGE|"G"g2g "D"ed^c|1AGE "Am"A2:|2"Em"AGE "Am"A3|!
|:"C"e/f/ge "Am"age|"D"dcA "Am"AGE|"C"e/f/ge "Am"age|"D"d^cd "Am"e2f|!
"C"gfg  "Am"a^ga|edc AGE|c2c cde|1"G"gec "Am"a3:|2"G"gec "Am"A3|]
